Dominus_Dark_Funeral/22/apps/hwbrowser.svg

<svg xmlns="http://www.w3.org/2000/svg" width="24" height="24" viewBox="0 0 6.35 6.35"><defs><linearGradient id="c"><stop offset="0" stop-color="#000005"/><stop offset="1" stop-opacity="0"/></linearGradient><linearGradient id="b"><stop offset="0" stop-color="#00000a"/><stop offset="1" stop-opacity="0"/></linearGradient><linearGradient id="a"><stop offset="0" stop-color="#2d5016"/><stop offset="1" stop-color="#71c837"/></linearGradient></defs><path d="M.45.41v3.3l1.88.82.02-.03a.43.43 0 0 1 .34-.16c.24 0 .44.2.44.44s-.2.44-.44.44a.44.44 0 0 1-.43-.38V4.8L.44 4v1.94H5.9V.41h-.86v1.67l.02.03c.12.07.19.2.19.34a.4.4 0 0 1-.4.41.41.41 0 0 1-.42-.4c0-.19.11-.34.28-.4l.05-.02V.41H1.82v1.83h.89l.02-.04a.41.41 0 0 1 .39-.28c.23 0 .42.19.42.43s-.18.43-.42.43a.42.42 0 0 1-.37-.23l-.02-.04H1.56V.4zm4.4 2.91c.1 0 .2.06.21.16.05.17-.15.34-.35.26-.23-.1-.11-.42.14-.42zm-.1.74c.13.02.17.16.13.28-.11.34-.25.66-.31 1 .03.14.21-.03.3-.06.08-.06.1.02.12.05-.17.12-.36.25-.56.3-.2.13-.39-.02-.31-.2l.26-.95c.03-.17-.23 0-.3.05-.07.06-.1.01-.13-.05.22-.14.42-.28.65-.37.06-.05.1-.05.15-.05z" fill="#e6e6e6" stroke-width=".91"/></svg>

<?xml version="1.0" encoding="UTF-8" standalone="no"?>
<svg
   xmlns:dc="http://purl.org/dc/elements/1.1/"
   xmlns:cc="http://creativecommons.org/ns#"
   xmlns:rdf="http://www.w3.org/1999/02/22-rdf-syntax-ns#"
   xmlns:svg="http://www.w3.org/2000/svg"
   xmlns="http://www.w3.org/2000/svg"
   xmlns:sodipodi="http://sodipodi.sourceforge.net/DTD/sodipodi-0.dtd"
   xmlns:inkscape="http://www.inkscape.org/namespaces/inkscape"
   width="24"
   height="24"
   viewBox="0 0 6.35 6.35"
   version="1.1"
   id="svg21"
   sodipodi:docname="hwbrowser.svg"
   inkscape:version="0.92.4 (5da689c313, 2019-01-14)">
  <metadata
     id="metadata25">
    <rdf:RDF>
      <cc:Work
         rdf:about="">
        <dc:format>image/svg+xml</dc:format>
        <dc:type
           rdf:resource="http://purl.org/dc/dcmitype/StillImage" />
        <dc:title></dc:title>
      </cc:Work>
    </rdf:RDF>
  </metadata>
  <sodipodi:namedview
     pagecolor="#ffffff"
     bordercolor="#666666"
     borderopacity="1"
     objecttolerance="10"
     gridtolerance="10"
     guidetolerance="10"
     inkscape:pageopacity="0"
     inkscape:pageshadow="2"
     inkscape:window-width="1138"
     inkscape:window-height="480"
     id="namedview23"
     showgrid="false"
     inkscape:zoom="9.8333333"
     inkscape:cx="1.0677966"
     inkscape:cy="12"
     inkscape:window-x="0"
     inkscape:window-y="25"
     inkscape:window-maximized="0"
     inkscape:current-layer="svg21" />
  <defs
     id="defs17">
    <linearGradient
       id="c">
      <stop
         offset="0"
         stop-color="#000005"
         id="stop2" />
      <stop
         offset="1"
         stop-opacity="0"
         id="stop4" />
    </linearGradient>
    <linearGradient
       id="b">
      <stop
         offset="0"
         stop-color="#00000a"
         id="stop7" />
      <stop
         offset="1"
         stop-opacity="0"
         id="stop9" />
    </linearGradient>
    <linearGradient
       id="a">
      <stop
         offset="0"
         stop-color="#2d5016"
         id="stop12" />
      <stop
         offset="1"
         stop-color="#71c837"
         id="stop14" />
    </linearGradient>
  </defs>
  <path
     d="m 0.45,0.41 v 3.3 L 2.33,4.53 2.35,4.5 A 0.43,0.43 0 0 1 2.69,4.34 c 0.24,0 0.44,0.2 0.44,0.44 0,0.24 -0.2,0.44 -0.44,0.44 A 0.44,0.44 0 0 1 2.26,4.84 V 4.8 L 0.44,4 V 5.94 H 5.9 V 0.41 H 5.04 v 1.67 l 0.02,0.03 c 0.12,0.07 0.19,0.2 0.19,0.34 A 0.4,0.4 0 0 1 4.85,2.86 0.41,0.41 0 0 1 4.43,2.46 c 0,-0.19 0.11,-0.34 0.28,-0.4 L 4.76,2.04 V 0.41 H 1.82 V 2.24 H 2.71 L 2.73,2.2 A 0.41,0.41 0 0 1 3.12,1.92 c 0.23,0 0.42,0.19 0.42,0.43 0,0.24 -0.18,0.43 -0.42,0.43 A 0.42,0.42 0 0 1 2.75,2.55 L 2.73,2.51 H 1.56 V 0.4 Z m 4.4,2.91 c 0.1,0 0.2,0.06 0.21,0.16 C 5.11,3.65 4.91,3.82 4.71,3.74 4.48,3.64 4.6,3.32 4.85,3.32 Z M 4.75,4.06 C 4.88,4.08 4.92,4.22 4.88,4.34 4.77,4.68 4.63,5 4.57,5.34 4.6,5.48 4.78,5.31 4.87,5.28 4.95,5.22 4.97,5.3 4.99,5.33 4.82,5.45 4.63,5.58 4.43,5.63 4.23,5.76 4.04,5.61 4.12,5.43 L 4.38,4.48 C 4.41,4.31 4.15,4.48 4.08,4.53 4.01,4.59 3.98,4.54 3.95,4.48 4.17,4.34 4.37,4.2 4.6,4.11 4.66,4.06 4.7,4.06 4.75,4.06 Z"
     id="path19"
     inkscape:connector-curvature="0"
     style="fill:#e6e6e6;stroke-width:0.91000003" />
</svg>
